!!!COM: Palestrina, Giovanni Perluigi da
!!!OPR: Missa Assumpta est Maria
!!!OMD: Benedictus
!!!OTL: First Section
**kern	**kern	**kern	**kern
*Itenor	*Icalto	*Icant	*Icant
!Tenor	!Altus	!Cantus 2	!Cantus 1
*clefGv2	*clefG2	*clefG2	*clefG2
*k[]	*k[]	*k[]	*k[]
*G:mix	*G:mix	*G:mix	*G:mix
*M4/2	*M4/2	*M4/2	*M4/2
=1	=1	=1	=1
0r	0d	0r	0dd
=2	=2	=2	=2
0r	1e	0r	1cc#
.	1f#	.	1dd
=3	=3	=3	=3
0r	1g	0r	2b
.	.	.	2dd
.	2r	.	4g
.	.	.	4a
.	2g	.	4b
.	.	.	4cc
=4	=4	=4	=4
0r	4d	0r	4dd
.	4e	.	4cc
.	4f	.	4dd
.	4g	.	4ee
.	4a	.	2ff
.	4g	.	.
.	4a	.	4ee
.	4b	.	4dd
=5	=5	=5	=5
0r	2.cc	0r	2.ee
.	4b	.	4dd
.	2a	.	2cc
.	[2g	.	2b
=6	=6	=6	=6
0d	2g]	0dd	1a
.	4f#	.	.
.	4e	.	.
.	1f#	.	2r
.	.	.	2a
=7	=7	=7	=7
1e	2g	1cc#	1g
.	2e	.	.
1f#	1d	1dd	1a
=8	=8	=8	=8
0g	0G	2b	1dd
.	.	2dd	.
.	.	4g	2r
.	.	4a	.
.	.	4b	2dd
.	.	4cc	.
=9	=9	=9	=9
2r	0r	4dd	4g
.	.	4cc	4a
2g	.	4dd	4b
.	.	4ee	4cc
4d	.	1ff	4dd
4e	.	.	4cc
4f	.	.	4a
4g	.	.	4b
=10	=10	=10	=10
4a	0r	2ee	2cc
4g	.	.	.
4f	.	1ff	1dd
4e	.	.	.
2d	.	.	.
4e	.	2ee	[2cc
4f	.	.	.
=11	=11	=11	=11
1g	0r	1dd	2cc]
.	.	.	2b
1c	.	1ee	1cc
=12	=12	=12	=12
0G	0g	0dd	0b
=13	=13	=13	=13
1d	1f#	1dd	1a
1G	1g	1dd	1b
=14	=14	=14	=14
1c	2e	0g	2cc
.	2g	.	2ee
2r	4c	.	4ee
.	4d	.	4ff
2g	4e	.	4gg
.	4f	.	4ff
=15	=15	=15	=15
4c	4g	0r	1ee
4d	4f	.	.
4e	4g	.	.
4f	4a	.	.
2g	2b	.	2dd
2a	2cc	.	2cc
=16	=16	=16	=16
0g	0b	2r	1dd
.	.	2dd	.
.	.	4g	2r
.	.	4a	.
.	.	4b	2dd
.	.	4cc	.
=17	=17	=17	=17
1r	2r	4dd	4g
.	.	4cc	4a
.	2g	4dd	4b
.	.	4ee	4cc
2r	4d	2.ff	4dd
.	4e	.	4cc
2d	4f	.	4dd
.	4g	4ee	4ee
=18	=18	=18	=18
4d	2a	1dd	1.ff
4c	.	.	.
4d	2b	.	.
4e	.	.	.
2f	2a	2.cc	.
2c	2g	.	2ee
.	.	4b	.
=19	=19	=19	=19
0d	2f#	2a	0dd
.	1g	2g	.
.	.	1a	.
.	2f#	.	.
=20	=20	=20	=20
1G	1g	1b	1dd
2r	2r	2r	2r
2G	2g	2dd	2b
=21	=21	=21	=21
2.c	2.g	2.ee	2.cc
4c	4g	4ee	4cc
[1c	4g	2ee	1cc
.	4f	.	.
.	4e	[2gg	.
.	4d	.	.
=22	=22	=22	=22
0c]	1e	4gg]	2r
.	.	4ff	.
.	.	4ee	2.gg
.	.	4dd	.
.	2r	4ee	.
.	.	4dd	4ff
.	[2cc	4cc	4ee
.	.	4b	4dd
=23	=23	=23	=23
0r	4cc]	4a	2ee
.	4b	4b	.
.	4a	2.cc	2.ff
.	4g	.	.
.	4a	.	.
.	4g	4b	4ee
.	4f	4a	[2ee
.	4e	4g	.
=24	=24	=24	=24
1r	2f	2a	2ee]
.	2f	2a	2dd
2r	2e	2b	2ee
2c	2g	2cc	2ee
=25	=25	=25	=25
2.f	2.a	2.cc	2.ff
4f	4a	4cc	4ff
1f	2a	4cc	1ff
.	.	4b	.
.	[2cc	4a	.
.	.	4g	.
=26	=26	=26	=26
2r	4cc]	1a	1r
.	4b	.	.
2.f	4a	.	.
.	4g	.	.
.	4a	1r	2r
4e	4g	.	.
4d	4f	.	[2ff
4c	4e	.	.
=27	=27	=27	=27
4d	4f	0r	4ff]
4c	4g	.	4ee
4B	2.a	.	4dd
4A	.	.	4cc
2B	.	.	2dd
.	4g	.	.
2c	[2g	.	4cc
.	.	.	4b
=28	=28	=28	=28
2.A	2g]	1r	2.cc
.	2f#	.	.
4A	.	.	4cc
[1G	2g	2r	2b
.	2d	2dd	2b
=29	=29	=29	=29
1G]	2.g	2.dd	2.b
.	4g	4dd	4b
2r	1g	2dd	2b
2G	.	2b	2dd
=30	=30	=30	=30
2.c	2r	2.cc	2.ee
.	2.g	.	.
4c	.	4cc	4ee
1c	.	[1cc	2ee
.	4f	.	.
.	4e	.	[2gg
.	4d	.	.
=31	=31	=31	=31
2r	2e	0cc]	4gg]
.	.	.	4ff
2.c	2e	.	4ee
.	.	.	4dd
.	2c	.	4ee
4B	.	.	4dd
4A	[2cc	.	4cc
4G	.	.	4b
=32	=32	=32	=32
4A	4cc]	2r	2a
4G	4b	.	.
4F	4a	2.cc	2a
4E	4g	.	.
[1F	4a	.	1f
.	4g	4b	.
.	4f	4a	.
.	4e	4g	.
=33	=33	=33	=33
1F]	4f	4a	2.ff
.	4g	4b	.
.	2.a	2.cc	.
.	.	.	4ee
1G	.	.	[1dd
.	4g	4b	.
.	[2g	4b	.
.	.	8a	.
.	.	8g	.
=34	=34	=34	=34
0d	2g]	1.a	1dd]
.	4f#	.	.
.	4e	.	.
.	2f#	.	1dd
.	2f#	2a	.
=35	=35	=35	=35
0G	0g	0b	0dd
*-	*-	*-	*-
!!!CDT: 1525/^1526/-1594/2/2
!!!OCY: Italia
!!!AGN: Mass (Parody)
!!!AST: renaissance, vocal
!!!ASW: Motet (Palestrina)
!!!PWK: Masses, Book 9
!!!RNB: Cadence finals: C
!!!YOR: Le Opere Complete, v. 25, p. 209
!!!YOO: Rome, Italy: Fratelli Scalera
!!!END: 1992//
!!!EED: John Miller
!!!YEC: Copyright 2000, John Miller
!!!YEN: United States of America
!!!YEM: Rights to all derivative electronic formats reserved.
!!!YEM: Refer to licensing agreement for further details.
!!!YEM: This file must be accompanied by the licensing agreement.
!!!YEM: A copy of the licensing agreement may be found at http://www.music-cog.ohio-state.edu/HumdrumDatabases/Palestrina/license.txt
!!!EMD: converted to Humdrum by Bret Aarden
